emblems/scalable/vcs-conflicting.svg

<svg height="24" viewBox="0 0 24 24" width="24" xmlns="http://www.w3.org/2000/svg"><path d="m12 1a11 11 0 0 0 -11 11 11 11 0 0 0 11 11 11 11 0 0 0 11-11 11 11 0 0 0 -11-11z" fill="#da4453"/><path d="m7.5558036 5.3337061-2.2220982 2.2220975 4.4441964 4.4441964-4.4441964 4.444196 2.2220982 2.222099 4.4441964-4.444198 4.444196 4.444198 2.222099-2.222099-4.444197-4.444196 4.444197-4.4441964-2.222099-2.2220975-4.444196 4.4441965z" fill="#fff"/></svg>

<?xml version="1.0" encoding="UTF-8" standalone="no"?>
<svg
   xmlns:dc="http://purl.org/dc/elements/1.1/"
   xmlns:cc="http://creativecommons.org/ns#"
   xmlns:rdf="http://www.w3.org/1999/02/22-rdf-syntax-ns#"
   xmlns:svg="http://www.w3.org/2000/svg"
   xmlns="http://www.w3.org/2000/svg"
   xmlns:sodipodi="http://sodipodi.sourceforge.net/DTD/sodipodi-0.dtd"
   xmlns:inkscape="http://www.inkscape.org/namespaces/inkscape"
   viewBox="0 0 24 24"
   id="svg5850"
   version="1.1"
   inkscape:version="0.91 r13725"
   sodipodi:docname="vcs-conflicting.svg"
   width="24"
   height="24">
  <metadata
     id="metadata5860">
    <rdf:RDF>
      <cc:Work
         rdf:about="">
        <dc:format>image/svg+xml</dc:format>
        <dc:type
           rdf:resource="http://purl.org/dc/dcmitype/StillImage" />
        <dc:title></dc:title>
      </cc:Work>
    </rdf:RDF>
  </metadata>
  <defs
     id="defs5858" />
  <sodipodi:namedview
     pagecolor="#ffffff"
     bordercolor="#666666"
     borderopacity="1"
     objecttolerance="10"
     gridtolerance="10"
     guidetolerance="10"
     inkscape:pageopacity="0"
     inkscape:pageshadow="2"
     inkscape:window-width="640"
     inkscape:window-height="480"
     id="namedview5856"
     showgrid="false"
     inkscape:zoom="39.8125"
     inkscape:cx="3.5290424"
     inkscape:cy="8"
     inkscape:current-layer="svg5850" />
  <path
     style="fill:#da4453;fill-opacity:1;stroke:none"
     d="M 12,1 A 11,11 0 0 0 1,12 11,11 0 0 0 12,23 11,11 0 0 0 23,12 11,11 0 0 0 12,1 Z"
     id="path5852"
     inkscape:connector-curvature="0" />
  <path
     style="fill:#ffffff;fill-opacity:1;stroke:none"
     d="M 7.5558036,5.3337061 5.3337054,7.5558036 9.7779018,12 5.3337054,16.444196 7.5558036,18.666295 12,14.222097 16.444196,18.666295 18.666295,16.444196 14.222098,12 18.666295,7.5558036 16.444196,5.3337061 12,9.7779026 7.5558036,5.3337061 Z"
     id="path5854"
     inkscape:connector-curvature="0" />
</svg>
